assets/icons/traton/phone.svg

<svg xmlns="http://www.w3.org/2000/svg" width="32" height="32" viewBox="0 0 32 32" fill="none">
<path fill-rule="evenodd" clip-rule="evenodd" d="M14.863 10.5078L14.112 10.8652L12.6042 11.5859L12.3786 11.6924C12.7254 13.2114 13.6819 14.9412 15.0954 16.4355C16.5668 17.9909 18.414 19.1635 20.3278 19.5654L20.4333 19.3457L21.154 17.8379L21.5114 17.0869L27.9977 18.8252V27.9785H25.9977V27.9766C17.0678 27.965 11.3934 24.1314 8.0534 19.291C4.74682 14.4983 4.00233 8.79305 4.00232 4.94859L4.00229 4.02148H13.1247L14.863 10.5078ZM5.9909 6.02148C5.9581 9.43038 6.94508 14.1636 9.69891 18.1553C12.6715 22.4632 17.7358 25.9652 25.9977 25.9766V20.3604L22.6013 19.4502L22.239 20.207L21.5192 21.7158C18.4777 21.6359 15.6633 19.946 13.6423 17.8096C11.6335 15.6859 10.2321 12.9339 10.2321 10.501H10.2341L12.4997 9.41797L11.5895 6.02148H5.9909Z" fill="#001D21" />
</svg>

<svg xmlns="http://www.w3.org/2000/svg" fill="none" viewBox="0 0 32 32"><path fill="#001d21" fill-rule="evenodd" d="m14.9 10.5-.8.4-1.5.7h-.2q.5 2.5 2.7 4.8 2.3 2.5 5.2 3.2l.1-.3.8-1.5.3-.7 6.5 1.7V28h-2c-9 0-14.6-3.9-18-8.7C4.8 14.5 4 8.8 4 4.9V4h9.1zM5.9 6c0 3.4 1 8.2 3.8 12.2 3 4.3 8 7.8 16.3 7.8v-5.6l-3.4-1-.4.8-.7 1.5c-3 0-5.8-1.8-7.9-3.9-2-2.1-3.4-4.9-3.4-7.3l2.3-1-1-3.5z" clip-rule="evenodd"/></svg>
